X: 11574
T: SUSAN'S BLYTHE WHEN WILL'S AT HAME.
C: Copyright.
Q: "Briskly."
%R: reel, strathspey
B: W. Hamilton "Universal Tune-Book" Vol. 1 Glasgow 1844 p.157 #4
S: http://imslp.org/wiki/Hamilton's_Universal_Tune-Book_(Various)
Z: 2016 John Chambers <jc:trillian.mit.edu>
M: C
L: 1/8
K: F
% - - - - - - - - - - - - - - - - - - - - - - - - -
c |\
f2eg f2eg | fdcB BGAF |\
f2eg fagf | eg=B>d d<cc :|\
c |\
d>efd efg>e | fgab ag-gb |\
a<fec d<fc<A |
B<dc>B A<FF :|\
c |\
F>GAF ED-DF | G>ABG Ac-cA |\
[1 B>cdf egfd | c<BG>B A<FF :|\
[2 B>cdf e<gf<a | b<ge>B A<FF |]
% - - - - - - - - - - - - - - - - - - - - - - - - -

%%sep 1 1 500
%%sep 1 1 500

